X:3229
T:Vals efter Janne Mårtensson
R:Polska
O:Åsele, Lappland
M:3/4
L:1/4
K:D
|: A,- | A, (DE) | F2D | FGE | A2 A-|A(BA) | c2A | EGF | D2 A,- | A, (DE) | F2D | FGE | A2 A-|A(BA) | c2A | EGF | D2:|
|:D- | D G/G/ G/G/ |GAG | (G/F/) F/F/ F/F/ | FGF | (F/E/) E/E/ E/E/ | cBc | dAG | F2 D-| 
D G/G/ G/G/ |GAG | (G/F/) F/F/ F/F/ | FGF | (F/E/) E/E/ E/E/ | cBc | d>d d | d2 :| 
(:musicend:)
(:music:)
